X:151
M:6/8
L:1/8
Q:3/8=100
K:D
|:e|fed faf|faf fdA|AFA def|gee e2 e|\
fed (3f/g/a/a|(3f/g/a/a fdA|AFA dge|fdd d2:|
|:e|fdf ece|dBd AFA|DFA dfa|gee e2 e|fdf ece|dBd AFA|DFA Bge|fdd d2:|

